newicons/emoji_clinking_glasses.svg

<?xml version="1.0" encoding="UTF-8" standalone="no"?>
<svg
   version="1.2"
   viewBox="0 0 48 48"
   id="svg8"
   xmlns="http://www.w3.org/2000/svg"
   xmlns:svg="http://www.w3.org/2000/svg">
  <defs
     id="defs1" />
  <path
     d="M 18.704396,11.787979 H 5.7864416"
     fill="none"
     stroke="#ffffff"
     stroke-linecap="round"
     stroke-linejoin="round"
     stroke-width="0.842469"
     id="path1"
     style="stroke-width:1;stroke-dasharray:none" />
  <path
     d="M 36.055738,10.617237 23.159799,13.672286"
     fill="none"
     stroke="#ffffff"
     stroke-linecap="round"
     stroke-linejoin="round"
     stroke-width="0.842469"
     id="path2"
     style="stroke-width:1;stroke-dasharray:none" />
  <path
     d="M 5.5239825,6.6601925 C 5.5094357,7.1887533 5.5,7.721414 5.5,8.2608705 c 0,10.9030325 3.0175219,19.7416955 6.739803,19.7416955 3.722281,0 6.739802,-8.838663 6.739802,-19.7416955 0,-0.5394565 -0.0094,-1.0721172 -0.02398,-1.600678"
     fill="none"
     stroke="#ffffff"
     stroke-linecap="round"
     stroke-linejoin="round"
     stroke-width="0.842469"
     id="path3"
     style="stroke-width:1;stroke-dasharray:none" />
  <path
     d="m 21.898614,8.6777208 c 0.108174,0.5175526 0.222245,1.0379694 0.347043,1.5627672 2.522821,10.60716 7.503591,18.507769 11.124831,17.646492 C 36.991728,27.025703 37.882224,17.728741 35.35946,7.121581 35.234661,6.5967833 35.102168,6.0807471 34.9658,5.5698781"
     fill="none"
     stroke="#ffffff"
     stroke-linecap="round"
     stroke-linejoin="round"
     stroke-width="0.842469"
     id="path4"
     style="stroke-width:1;stroke-dasharray:none" />
  <path
     d="M 12.239803,28.564207 V 41.481959"
     fill="none"
     stroke="#ffffff"
     stroke-linecap="round"
     stroke-linejoin="round"
     stroke-width="0.842469"
     id="path5"
     style="stroke-width:1;stroke-dasharray:none" />
  <path
     d="M 6.0616502,41.481959 H 18.417955"
     fill="none"
     stroke="#ffffff"
     stroke-linecap="round"
     stroke-linejoin="round"
     stroke-width="0.842469"
     id="path6"
     style="stroke-width:1;stroke-dasharray:none" />
  <path
     d="M 33.50051,28.433401 36.4895,41.000577"
     fill="none"
     stroke="#ffffff"
     stroke-linecap="round"
     stroke-linejoin="round"
     stroke-width="0.842469"
     id="path7"
     style="stroke-width:1;stroke-dasharray:none" />
  <path
     d="M 30.479,42.430122 42.5,39.571087"
     fill="none"
     stroke="#ffffff"
     stroke-linecap="round"
     stroke-linejoin="round"
     stroke-width="0.842469"
     id="path8"
     style="stroke-width:1;stroke-dasharray:none" />
</svg>

<?xml version="1.0" encoding="UTF-8"?><svg id="b" xmlns="http://www.w3.org/2000/svg" viewBox="0 0 48 48"><defs><style>.k{fill:none;stroke:#fff;stroke-linecap:round;stroke-linejoin:round;}</style></defs><path id="c" class="k" d="M18.7044,11.788H5.7864"/><path id="d" class="k" d="M36.0557,10.6172l-12.8959,3.055"/><path id="e" class="k" d="M5.524,6.6602c-.0145.5286-.024,1.0612-.024,1.6007,0,10.903,3.0175,19.7417,6.7398,19.7417s6.7398-8.8387,6.7398-19.7417c0-.5395-.0094-1.0721-.024-1.6007"/><path id="f" class="k" d="M21.8986,8.6777c.1082.5176.2222,1.038.347,1.5628,2.5228,10.6072,7.5036,18.5078,11.1248,17.6465,3.6212-.8613,4.5117-10.1582,1.989-20.7654-.1248-.5248-.2573-1.0408-.3937-1.5517"/><path id="g" class="k" d="M12.2398,28.5642v12.9178"/><path id="h" class="k" d="M6.0617,41.482h12.3563"/><path id="i" class="k" d="M33.5005,28.4334l2.989,12.5672"/><path id="j" class="k" d="M30.479,42.4301l12.021-2.859"/></svg>
